X:52
T:Jigs simple chords 153
M:3/4
L:1/8
K:D
(3ABc[dD,F,A,] cd f2 | e/f/[gG,B,D] fg B2 | e/d/[cA,CEG] BA g2 | e[f5A5D,5F,5A,5] | f/g/[aD,F,A,] ba fd |
A[BB,DF] cd2< f2 |[eE,^G,B,D] fe Bc | d[e5c5A,5C5E5G5] | (3ABc[dD,F,A,] cd f2 |
e/f/[gG,B,D] fg B2 | e/d/[cA,CEG] BA g2 | e[f5A5D,5F,5A,5] | f/g/[aD,F,A,] fd A2 |
e/f/[gG,B,D] fg B2 | e/d/[AA,CEG] ge Bc | A2<[d2D,2F,2A,2] d3 |[c4A,4C4E4G4]B |
A[g4A4A,4C4E4G4]e | c[d4D,4F,4A,4]B | A[f4A4D,4F,4A,4]e | d[c2A,2C2E2G2]c cB |
A[g2A,2C2E2G2]g2< g2 |[d2D,2F,2A,2]d dB | A[f2D,2F,2A,2]A2fA2< f2 A3 |[c4A,4C4E4G4]B |
A[g4A4A,4C4E4G4]e | c[d4D,4F,4A,4]B | A[f4A4D,4F,4A,4]e | d[g4G,4B,4D4]a |
b[f4D,4F,4A,4]g | a[eE,G,B,] fg B2 | c2<[d2D,2F,2A,2] d2 |


